X:106
T:Fifth Maine Quickstep
S:American Veteran Fifer #106
C:W.M. Larrabee, Binghamton, N.Y.
M:2/4
L:1/8
Q:1/8=180
K:D 
%%MIDI program 72
%%MIDI transpose 8
%%MIDI ratio 3 1
F/G/ | Ad dc/d/ | ee ea/g/ | fd d/c/d/f/ | e/d/c/B/ A/G/F/G/ |
Ad dc/d/ | ee ea/g/ | f/e/d/f/ ec | d/f/e/c/ d :|
|: F/G/ | Ad/e/ f/d/d/d/ | c/d/e/f/ g/e/e/c/ | d/e/f/g/ a/g/e/c/ | d/f/e/d/ c/B/A/G/ |
Fd/e/ f/d/d/d/ | c/d/e/f/ g/e/e/c/ | d/e/f/g/ a/g/e/c/ | d/f/e/c/ d :|



